src/frontend/src/assets/icon_unconnect.svg

<svg width="20" height="20" viewBox="0 0 20 20" fill="none" xmlns="http://www.w3.org/2000/svg">
<g id="Frame">
<path id="Vector" d="M3.1983 6.76316H6.01294C6.2733 6.76316 6.42953 6.97144 6.42953 7.17972C6.42953 7.388 6.27333 7.54423 6.01294 7.54423H3.1983C2.99 7.54423 2.83378 7.388 2.83378 7.17972C2.83378 6.97144 2.99 6.76316 3.1983 6.76316ZM5.02265 3.89554L7.00324 5.87611C7.15945 6.0323 7.15945 6.29269 7.00324 6.44892C6.84703 6.60513 6.58664 6.60513 6.42953 6.44892L4.44894 4.41626C4.29273 4.26005 4.29273 3.99968 4.44894 3.89554C4.60609 3.73929 4.86642 3.73929 5.02265 3.89554ZM8.0456 2.53982V5.40564C8.0456 5.61574 7.88939 5.77197 7.68107 5.77197C7.47189 5.77197 7.26361 5.61576 7.26361 5.40566V2.53982C7.26361 2.33152 7.47187 2.17533 7.68107 2.17533C7.88939 2.17533 8.0456 2.33152 8.0456 2.53982ZM17.4269 12.8072H14.6131C14.4048 12.8072 14.2486 12.651 14.2486 12.4427C14.2486 12.2344 14.4048 12.0261 14.6131 12.0261H17.4269C17.6352 12.0261 17.8453 12.2344 17.8453 12.4427C17.8453 12.651 17.6352 12.8072 17.4269 12.8072H17.4269ZM15.6546 15.7269L13.6219 13.7463C13.4657 13.5901 13.4657 13.3297 13.6219 13.1735C13.7782 13.0173 14.0403 13.0173 14.1965 13.1735L16.1771 15.1541C16.3333 15.3103 16.3333 15.5707 16.1771 15.7269C16.0209 15.8832 15.8108 15.8832 15.6546 15.7269ZM12.5805 17.0305V14.215C12.5805 14.0067 12.7367 13.7984 12.9971 13.7984C13.2053 13.7984 13.3616 14.0067 13.3616 14.215V17.0305C13.3616 17.2389 13.2053 17.4471 12.9971 17.4471C12.7367 17.4471 12.5805 17.2388 12.5805 17.0305ZM6.37744 12.8072L12.7888 6.39683C12.9971 6.18855 13.4136 6.18855 13.6219 6.39683C13.8303 6.60513 13.8303 7.02173 13.6219 7.23001L7.21154 13.6422C7.00324 13.8505 6.63873 13.8505 6.37746 13.6422C6.16917 13.3818 6.16917 13.0173 6.37746 12.8072L6.37744 12.8072ZM10.9644 5.82404L12.997 3.79134C13.9361 2.90611 15.6546 2.64396 16.5417 3.53099L16.8541 3.84343C17.7393 4.78074 17.531 6.50097 16.5937 7.388L14.561 9.4207C13.8302 10.1497 12.6325 10.358 11.6934 9.94146L11.0164 10.6705C12.1638 11.4534 13.7781 11.2971 14.7693 10.2539L17.4268 7.64843C18.6263 6.44896 18.6263 4.52046 17.4268 3.37304L17.0623 2.95644C15.8646 1.75878 13.9361 1.75878 12.7887 2.95644L10.1312 5.61578C9.1921 6.50101 9.03589 7.90878 9.50457 9.00411L10.2354 8.27328C10.0271 7.43831 10.3395 6.44892 10.9644 5.82404ZM9.03589 14.1629L7.00324 16.2477C6.1171 17.1347 4.39689 17.3951 3.45865 16.456L3.14621 16.1435C2.26007 15.2583 2.52042 13.538 3.40656 12.651L5.43923 10.5663C6.16916 9.83724 7.4198 9.62898 8.30595 10.0455L9.03587 9.36681C7.83728 8.58751 6.2733 8.74191 5.23091 9.73312L2.57251 12.3907C1.37394 13.5901 1.37394 15.5186 2.57251 16.6642L2.99 17.0826C4.1365 18.2282 6.06499 18.2282 7.26361 17.0826L9.86996 14.4233C10.8082 13.486 11.0165 12.1303 10.4957 11.0367L9.76581 11.7658C9.9741 12.5989 9.71375 13.538 9.03589 14.1629Z" fill="white"/>
</g>
</svg>

<svg width="20" height="20" viewBox="0 0 20 20" fill="none" xmlns="http://www.w3.org/2000/svg"><path d="M3.198 6.763h2.815a.41.41 0 0 1 .417.417c0 .208-.157.364-.417.364H3.198a.356.356 0 0 1-.364-.364c0-.209.156-.417.364-.417zm1.825-2.867 1.98 1.98a.409.409 0 0 1 0 .573.41.41 0 0 1-.573 0L4.449 4.416c-.156-.156-.156-.416 0-.52a.41.41 0 0 1 .574 0zM8.046 2.54v2.866c0 .21-.157.366-.365.366-.21 0-.417-.156-.417-.366V2.54c0-.208.208-.365.417-.365.208 0 .365.157.365.365zm9.38 10.267h-2.813a.356.356 0 0 1-.364-.364c0-.209.156-.417.364-.417h2.814c.208 0 .418.208.418.417 0 .208-.21.364-.418.364zm-1.771 2.92-2.033-1.98a.409.409 0 0 1 0-.573.41.41 0 0 1 .575 0l1.98 1.98a.409.409 0 0 1 0 .573c-.156.156-.366.156-.522 0zM12.58 17.03v-2.815a.41.41 0 0 1 .416-.417c.208 0 .365.209.365.417v2.816c0 .208-.157.416-.365.416a.41.41 0 0 1-.416-.416zm-6.204-4.223 6.412-6.41c.208-.208.625-.208.833 0 .208.208.208.625 0 .833l-6.41 6.412c-.209.209-.573.209-.835 0-.208-.26-.208-.625 0-.835zm4.587-6.983 2.033-2.033c.94-.885 2.658-1.147 3.545-.26l.312.312c.885.938.677 2.658-.26 3.545L14.56 9.421c-.73.729-1.928.937-2.868.52l-.677.73c1.148.782 2.762.626 3.753-.417l2.658-2.606c1.2-1.199 1.2-3.128 0-4.275l-.365-.417c-1.197-1.197-3.126-1.197-4.273 0l-2.658 2.66c-.939.885-1.095 2.293-.626 3.388l.73-.73c-.208-.836.104-1.825.73-2.45zm-1.928 8.339-2.033 2.085c-.886.887-2.606 1.147-3.544.208l-.313-.313c-.886-.885-.626-2.605.26-3.492l2.033-2.085c.73-.729 1.98-.937 2.867-.52l.73-.68a3.074 3.074 0 0 0-3.805.367l-2.658 2.658c-1.2 1.2-1.2 3.128 0 4.273l.417.419c1.146 1.145 3.075 1.145 4.274 0l2.606-2.66c.938-.937 1.147-2.293.626-3.386l-.73.729a2.474 2.474 0 0 1-.73 2.397z" fill="#fff"/></svg>
